packages/elvis-assets-icons/icons/svg/src/money-color.svg

<svg width="24" height="24" viewBox="0 0 24 24" fill="none" xmlns="http://www.w3.org/2000/svg">
<path fill-rule="evenodd" clip-rule="evenodd" d="M2.18103 0.961866C1.01064 1.54706 0 2.49484 0 3.76569V18.8284C0 20.1195 1.01171 21.068 2.1893 21.65C3.40735 22.2521 5.03323 22.5941 6.77824 22.5941C7.63523 22.5941 8.38276 22.4873 9.0769 22.3881L9.09395 22.3857C9.50571 22.3269 9.79183 21.9454 9.73301 21.5336C9.67418 21.1219 9.29269 20.8358 8.88093 20.8946C8.17402 20.9956 7.52091 21.0878 6.77824 21.0878C5.20943 21.0878 3.82277 20.7772 2.85672 20.2997C1.85021 19.8022 1.50627 19.2444 1.50627 18.8284V18.2424C1.72267 18.3888 1.95264 18.5205 2.1893 18.6375C3.40735 19.2395 5.03323 19.5816 6.77824 19.5816C7.63521 19.5816 8.38272 19.4748 9.07684 19.3756L9.09395 19.3732C9.50571 19.3143 9.79183 18.9329 9.73301 18.5211C9.67418 18.1093 9.29269 17.8232 8.88093 17.882C8.17402 17.983 7.52091 18.0753 6.77824 18.0753C5.20943 18.0753 3.82277 17.7646 2.85672 17.2872C1.85021 16.7897 1.50627 16.2319 1.50627 15.8159V15.2298C1.72267 15.3762 1.95264 15.508 2.1893 15.6249C3.40735 16.227 5.03323 16.569 6.77824 16.569C7.63523 16.569 8.38275 16.4622 9.0769 16.3631L9.09395 16.3606C9.50571 16.3018 9.79183 15.9203 9.73301 15.5085C9.67418 15.0968 9.29269 14.8107 8.88093 14.8695C8.17402 14.9705 7.52091 15.0627 6.77824 15.0627C5.20943 15.0627 3.82277 14.7521 2.85672 14.2746C1.85021 13.7771 1.50627 13.2193 1.50627 12.8033V12.2173C1.72267 12.3637 1.95264 12.4954 2.1893 12.6124C3.40735 13.2144 5.03323 13.5565 6.77824 13.5565C7.63522 13.5565 8.38274 13.4497 9.07688 13.3505L9.09395 13.3481C9.50571 13.2892 9.79183 12.9078 9.73301 12.496C9.67418 12.0842 9.29269 11.7981 8.88093 11.8569C8.17402 11.9579 7.52091 12.0502 6.77824 12.0502C5.20943 12.0502 3.82277 11.7395 2.85672 11.2621C1.85021 10.7646 1.50627 10.2068 1.50627 9.79078V9.20472C1.72267 9.3511 1.95264 9.48288 2.1893 9.59985C3.40735 10.2019 5.03323 10.5439 6.77824 10.5439C8.52324 10.5439 10.1491 10.2019 11.3672 9.59985C11.6038 9.48288 11.8338 9.3511 12.0502 9.20472V9.79078C12.0502 10.2067 12.3874 10.5439 12.8033 10.5439C13.2193 10.5439 13.5565 10.2067 13.5565 9.79078V3.76569C13.5565 2.49484 12.5458 1.54706 11.3754 0.961866C10.16 0.354147 8.53359 0 6.77824 0C5.02288 0 3.39647 0.354147 2.18103 0.961866ZM2.85466 2.30912C1.84439 2.81425 1.50627 3.37274 1.50627 3.76569C1.50627 4.15863 1.84439 4.71712 2.85466 5.22225C3.81988 5.70486 5.20602 6.0251 6.77824 6.0251C8.35045 6.0251 9.73659 5.70486 10.7018 5.22225C11.7121 4.71712 12.0502 4.15863 12.0502 3.76569C12.0502 3.37274 11.7121 2.81425 10.7018 2.30912C9.73659 1.82651 8.35045 1.50627 6.77824 1.50627C5.20602 1.50627 3.81988 1.82651 2.85466 2.30912ZM2.85672 8.24951C1.85021 7.75204 1.50627 7.19424 1.50627 6.77824V6.17621C1.72033 6.32154 1.9475 6.45274 2.18103 6.56951C3.39647 7.17723 5.02288 7.53137 6.77824 7.53137C8.53359 7.53137 10.16 7.17723 11.3754 6.56951C11.609 6.45274 11.8361 6.32154 12.0502 6.17621V6.77824C12.0502 7.19424 11.7063 7.75204 10.6998 8.24951C9.7337 8.72698 8.34704 9.03765 6.77824 9.03765C5.20943 9.03765 3.82277 8.72698 2.85672 8.24951Z" fill="black"/>
<path fill-rule="evenodd" clip-rule="evenodd" d="M12.6244 11.4054C11.454 11.9906 10.4434 12.9384 10.4434 14.2092V20.2343C10.4434 21.5254 11.4551 22.4739 12.6327 23.0559C13.8508 23.658 15.4766 24 17.2216 24C18.9666 24 20.5925 23.658 21.8106 23.0559C22.9882 22.4739 23.9999 21.5254 23.9999 20.2343V14.2092C23.9999 12.9384 22.9892 11.9906 21.8188 11.4054C20.6034 10.7977 18.977 10.4435 17.2216 10.4435C15.4663 10.4435 13.8399 10.7977 12.6244 11.4054ZM13.2981 12.7527C12.2878 13.2578 11.9497 13.8163 11.9497 14.2092C11.9497 14.6022 12.2878 15.1607 13.2981 15.6658C14.2633 16.1484 15.6494 16.4686 17.2216 16.4686C18.7939 16.4686 20.18 16.1484 21.1452 15.6658C22.1555 15.1607 22.4936 14.6022 22.4936 14.2092C22.4936 13.8163 22.1555 13.2578 21.1452 12.7527C20.18 12.2701 18.7939 11.9498 17.2216 11.9498C15.6494 11.9498 14.2633 12.2701 13.2981 12.7527ZM22.4936 17.2218V16.6198C22.2795 16.7651 22.0524 16.8963 21.8188 17.013C20.6034 17.6208 18.977 17.9749 17.2216 17.9749C15.4663 17.9749 13.8399 17.6208 12.6244 17.013C12.3909 16.8963 12.1637 16.7651 11.9497 16.6198V17.2218C11.9497 17.6378 12.2936 18.1956 13.3001 18.693C14.2662 19.1705 15.6528 19.4812 17.2216 19.4812C18.7904 19.4812 20.1771 19.1705 21.1432 18.693C22.1497 18.1956 22.4936 17.6378 22.4936 17.2218ZM11.9497 19.6483C12.1661 19.7946 12.396 19.9264 12.6327 20.0434C13.8508 20.6454 15.4766 20.9875 17.2216 20.9875C18.9666 20.9875 20.5925 20.6454 21.8106 20.0434C22.0472 19.9264 22.2772 19.7946 22.4936 19.6483V20.2343C22.4936 20.6503 22.1497 21.2081 21.1432 21.7056C20.1771 22.1831 18.7904 22.4937 17.2216 22.4937C15.6528 22.4937 14.2662 22.1831 13.3001 21.7056C12.2936 21.2081 11.9497 20.6503 11.9497 20.2343V19.6483Z" fill="black"/>
<path fill-rule="evenodd" clip-rule="evenodd" d="M15.336 13.7037C15.2469 13.387 14.956 13.1548 14.6109 13.1548C14.195 13.1548 13.8578 13.492 13.8578 13.908C13.8578 14.3584 14.1289 14.6712 14.3498 14.8485C14.5785 15.0319 14.8626 15.164 15.1454 15.2607C15.7184 15.4568 16.4568 15.5649 17.2218 15.5649C17.9868 15.5649 18.7252 15.4568 19.2982 15.2607C19.581 15.164 19.8651 15.0319 20.0937 14.8485C20.3147 14.6712 20.5858 14.3584 20.5858 13.908C20.5858 13.492 20.2486 13.1548 19.8327 13.1548C19.4875 13.1548 19.1966 13.387 19.1076 13.7037C19.0515 13.7383 18.9561 13.7858 18.8106 13.8356C18.4297 13.9659 17.8627 14.0586 17.2218 14.0586C16.5809 14.0586 16.0139 13.9659 15.6329 13.8356C15.4875 13.7858 15.3921 13.7383 15.336 13.7037ZM19.1628 13.6635C19.1628 13.6635 19.1621 13.6642 19.1605 13.6657C19.1619 13.6642 19.1627 13.6635 19.1628 13.6635ZM15.2831 13.6657C15.2815 13.6642 15.2807 13.6635 15.2808 13.6635C15.2808 13.6635 15.2817 13.6642 15.2831 13.6657Z" fill="#29D305"/>
<path fill-rule="evenodd" clip-rule="evenodd" d="M4.89235 3.26012C4.8033 2.94345 4.51239 2.7113 4.16726 2.7113C3.75131 2.7113 3.41412 3.04849 3.41412 3.46444C3.41412 3.9149 3.68524 4.22763 3.9062 4.40491C4.13481 4.58833 4.41895 4.72046 4.70172 4.8172C5.27476 5.01324 6.01315 5.12134 6.77814 5.12134C7.54313 5.12134 8.28151 5.01324 8.85455 4.8172C9.13733 4.72046 9.42146 4.58833 9.65008 4.40491C9.87103 4.22763 10.1421 3.9149 10.1421 3.46444C10.1421 3.04849 9.80496 2.7113 9.38901 2.7113C9.04388 2.7113 8.75297 2.94345 8.66392 3.26012C8.60785 3.29474 8.51245 3.34225 8.36699 3.39202C7.98606 3.52234 7.419 3.61507 6.77814 3.61507C6.13727 3.61507 5.57022 3.52234 5.18928 3.39202C5.04383 3.34225 4.94842 3.29474 4.89235 3.26012ZM8.71913 3.21992C8.71918 3.21992 8.71846 3.22066 8.71684 3.22213C8.71827 3.22065 8.71908 3.21992 8.71913 3.21992ZM4.83943 3.22213C4.83781 3.22066 4.83709 3.21992 4.83714 3.21992C4.83719 3.21992 4.83801 3.22065 4.83943 3.22213Z" fill="#29D305"/>
</svg>

<svg width="24" height="24" fill="none" xmlns="http://www.w3.org/2000/svg"><path fill-rule="evenodd" clip-rule="evenodd" d="M2.181.962C1.011 1.547 0 2.495 0 3.766v15.062c0 1.291 1.012 2.24 2.19 2.822 1.217.602 2.843.944 4.588.944.857 0 1.605-.107 2.299-.206l.017-.002a.753.753 0 10-.213-1.491c-.707.1-1.36.193-2.103.193-1.569 0-2.955-.31-3.921-.788-1.007-.498-1.35-1.056-1.35-1.472v-.586c.216.147.446.278.682.395 1.218.602 2.844.945 4.59.945.856 0 1.604-.107 2.298-.206l.017-.003a.753.753 0 00-.213-1.491c-.707.101-1.36.193-2.103.193-1.569 0-2.955-.31-3.921-.788-1.007-.497-1.35-1.055-1.35-1.471v-.586c.216.146.446.278.682.395 1.218.602 2.844.944 4.59.944.856 0 1.604-.107 2.298-.206l.017-.002a.753.753 0 10-.213-1.492c-.707.101-1.36.194-2.103.194-1.569 0-2.955-.31-3.921-.788-1.007-.498-1.35-1.056-1.35-1.472v-.586c.216.147.446.278.682.395 1.218.602 2.844.944 4.59.944.856 0 1.604-.106 2.298-.205l.017-.003a.753.753 0 00-.213-1.491c-.707.1-1.36.193-2.103.193-1.569 0-2.955-.31-3.921-.788-1.007-.497-1.35-1.055-1.35-1.471v-.586c.216.146.446.278.682.395 1.218.602 2.844.944 4.59.944 1.744 0 3.37-.342 4.588-.944a5.84 5.84 0 00.683-.395v.586a.753.753 0 001.506 0V3.766c0-1.271-1.01-2.219-2.18-2.804C10.16.354 8.533 0 6.777 0 5.023 0 3.396.354 2.181.962zm.674 1.347c-1.01.505-1.349 1.064-1.349 1.457s.338.951 1.349 1.456c.965.483 2.351.803 3.923.803s2.959-.32 3.924-.803c1.01-.505 1.348-1.063 1.348-1.456s-.338-.952-1.348-1.457c-.965-.482-2.352-.803-3.924-.803s-2.958.32-3.923.803zm.002 5.94c-1.007-.497-1.35-1.055-1.35-1.47v-.603c.213.146.44.277.674.394 1.215.607 2.842.961 4.597.961 1.756 0 3.382-.354 4.597-.961.234-.117.461-.248.675-.394v.602c0 .416-.344.974-1.35 1.472-.966.477-2.353.788-3.922.788s-2.955-.311-3.921-.788z" fill="#000"/><path fill-rule="evenodd" clip-rule="evenodd" d="M12.624 11.405c-1.17.586-2.18 1.533-2.18 2.804v6.025c0 1.291 1.011 2.24 2.189 2.822 1.218.602 2.844.944 4.589.944 1.745 0 3.37-.342 4.589-.944 1.177-.582 2.189-1.53 2.189-2.822V14.21c0-1.27-1.01-2.218-2.181-2.804-1.216-.607-2.842-.961-4.597-.961-1.756 0-3.382.354-4.598.961zm.674 1.348c-1.01.505-1.348 1.063-1.348 1.456s.338.952 1.348 1.457c.965.482 2.351.803 3.924.803 1.572 0 2.958-.32 3.923-.803 1.01-.505 1.349-1.064 1.349-1.457s-.338-.951-1.349-1.456c-.965-.483-2.351-.803-3.923-.803-1.573 0-2.959.32-3.924.803zm9.196 4.469v-.602a5.895 5.895 0 01-.675.393c-1.216.608-2.842.962-4.597.962-1.756 0-3.382-.354-4.598-.962a5.894 5.894 0 01-.674-.393v.602c0 .416.344.974 1.35 1.471.966.477 2.353.788 3.922.788 1.568 0 2.955-.31 3.921-.788 1.007-.497 1.35-1.055 1.35-1.471zM11.95 19.648c.216.147.446.278.683.395 1.218.602 2.844.945 4.589.945 1.745 0 3.37-.343 4.589-.945.236-.117.466-.248.683-.395v.586c0 .416-.344.974-1.35 1.472-.967.477-2.354.788-3.922.788-1.57 0-2.956-.31-3.922-.788-1.006-.498-1.35-1.056-1.35-1.472v-.586z" fill="#000"/><path fill-rule="evenodd" clip-rule="evenodd" d="M15.336 13.704a.754.754 0 00-1.478.204c0 .45.27.763.492.94.229.184.513.316.795.413.573.196 1.312.304 2.077.304.765 0 1.503-.108 2.076-.304.283-.097.567-.23.796-.412.22-.178.492-.49.492-.941a.753.753 0 00-1.478-.204 1.512 1.512 0 01-.297.132c-.381.13-.948.223-1.59.223-.64 0-1.207-.093-1.588-.223a1.513 1.513 0 01-.297-.132zm3.827-.04l-.003.002a.014.014 0 01.003-.002zm-3.88.002l-.002-.002.002.002zM4.892 3.26a.753.753 0 00-1.478.204c0 .45.271.764.492.94.229.184.513.316.796.413.573.196 1.311.304 2.076.304.765 0 1.504-.108 2.077-.304.282-.097.566-.229.795-.412.221-.177.492-.49.492-.94a.753.753 0 00-1.478-.205 1.508 1.508 0 01-.297.132c-.38.13-.948.223-1.589.223-.64 0-1.208-.093-1.589-.223a1.508 1.508 0 01-.297-.132zm3.827-.04zm-3.88.002z" fill="#29D305"/></svg>
